X: 10442
T: Donegal Lass, The
R: jig
M: 6/8
K: Amixolydian
Ace afe|dcB A2F|GAB G2A|FGA F2F|
Ace afe|dcB A2^g|age dcB|ABA A2E|
Ace afe|dcB A2F|GAB G2g|fga fed|
Ace afe|dcB A2^g|age dcB|ABA A2F||
GAB G2g|fga fed|~e3 ~A3|ege edB|
GAB G2g|fga fd/e/f|~a3 age|age aga|
b2g gab|a2f fed|~e3 ~A3|ege edB|
GAB G2G|FGA F2^g|age dcB|ABA A2E||

